src/svg/big-snow.svg

<svg xmlns="http://www.w3.org/2000/svg" width="1000" height="1000" viewBox="0 0 1000 1000"><path fill="#060606" d="M315.538 804.106c-10.301 0-18.585-8.322-18.585-18.564v-125.299c0-10.263 8.284-18.585 18.585-18.585 10.242 0 18.574 8.322 18.574 18.585v125.299c0 10.242-8.332 18.564-18.574 18.564zm70.341-40.601c-5.141 8.903-16.528 11.91-25.384 6.809l-108.509-62.679c-8.895-5.102-11.95-16.47-6.8-25.374 5.151-8.846 16.489-11.911 25.384-6.751l108.51 62.621c8.856 5.14 11.901 16.489 6.799 25.374zm-6.799-55.87l-108.51 62.679c-8.895 5.102-20.232 2.095-25.384-6.809-5.15-8.885-2.095-20.233 6.8-25.374l108.509-62.621c8.895-5.16 20.243-2.095 25.384 6.79 5.102 8.865 2.057 20.233-6.799 25.335zm332.666-105.28h-66.714l.155-3.646c0-17.983-3.608-40.253-10.165-55.831 34.607.136 61.806.214 76.724.214 62.678 0 113.484-40.428 113.484-103.097 0-62.718-50.807-107.462-113.484-107.462-8.672 0-17.091 1.097-25.161 2.93 2.657-12.261 4.151-24.947 4.151-38.032 0-98.082-79.497-177.589-177.551-177.589-92.854 0-168.908 71.263-176.804 162.06-6.935-1.047-13.996-1.784-21.241-1.784-76.753 0-139.034 57.043-139.034 133.796 0 76.801 62.281 128.654 139.034 128.654 15.306 0 40.301.098 75.278.175-6.81 15.83-10.641 37.596-10.641 55.967 0 1.202.175 2.425.213 3.646h-64.851c-107.413 0-194.506-80.972-194.506-188.442 0-98.17 72.834-173.923 167.337-187.183 32.057-93.679 120.672-161.148 225.214-161.148 124.553 0 226.611 95.687 237.106 217.503 73.93 17.439 129.004 77.626 129.004 156.91.002 92.542-74.995 162.359-167.548 162.359zm-200.606 55.754c-9.816 0-17.799-7.993-17.799-17.809v-120.022c0-9.797 7.982-17.789 17.799-17.789 9.815 0 17.789 7.992 17.789 17.789v120.022c0 9.816-7.974 17.809-17.789 17.809zm67.373-38.915c-4.928 8.517-15.83 11.426-24.288 6.499l-103.931-60.002c-8.545-4.889-11.465-15.791-6.537-24.287 4.927-8.517 15.781-11.446 24.336-6.499l103.921 60.001c8.458 4.889 11.387 15.791 6.499 24.288zm-6.538-53.503l-103.931 60.002c-8.506 4.927-19.36 2.018-24.287-6.499-4.928-8.497-1.97-19.399 6.498-24.288l103.912-60.001c8.574-4.947 19.418-2.018 24.346 6.499 4.888 8.496 1.959 19.399-6.538 24.287zm140.877 238.415c-10.301 0-18.585-8.322-18.585-18.564v-125.299c0-10.263 8.284-18.585 18.585-18.585 10.242 0 18.564 8.322 18.564 18.585v125.299c0 10.242-8.322 18.564-18.564 18.564zm70.302-40.601c-5.122 8.903-16.489 11.91-25.355 6.809l-108.499-62.679c-8.885-5.102-11.95-16.47-6.809-25.374 5.102-8.846 16.489-11.911 25.393-6.751l108.441 62.621c8.924 5.14 11.97 16.489 6.829 25.374zm-6.829-55.87l-108.479 62.679c-8.865 5.102-20.253 2.095-25.354-6.809-5.142-8.885-2.076-20.233 6.809-25.374l108.461-62.621c8.904-5.16 20.271-2.095 25.394 6.79 5.139 8.865 2.093 20.233-6.831 25.335zm-265.185 228.58c-9.816 0-17.799-7.973-17.799-17.789v-120.023c0-9.815 7.982-17.789 17.799-17.789 9.815 0 17.789 7.974 17.789 17.789v120.022c0 9.817-7.974 17.79-17.789 17.79zm67.373-38.896c-4.928 8.497-15.83 11.427-24.288 6.499l-103.931-60.021c-8.545-4.889-11.465-15.791-6.537-24.288 4.927-8.497 15.781-11.426 24.336-6.499l103.921 60.002c8.458 4.889 11.387 15.792 6.499 24.307zm-6.538-53.521l-103.931 60.021c-8.506 4.928-19.36 1.998-24.287-6.499-4.928-8.516-1.97-19.418 6.498-24.307l103.912-60.002c8.574-4.927 19.418-1.998 24.346 6.499 4.888 8.497 1.959 19.399-6.538 24.288z"/></svg>

<?xml version="1.0" encoding="utf-8"?>
<!-- Generator: Adobe Illustrator 16.0.0, SVG Export Plug-In . SVG Version: 6.00 Build 0)  -->
<!DOCTYPE svg PUBLIC "-//W3C//DTD SVG 1.1//EN" "http://www.w3.org/Graphics/SVG/1.1/DTD/svg11.dtd">
<svg version="1.1" id="Layer_1" xmlns="http://www.w3.org/2000/svg" xmlns:xlink="http://www.w3.org/1999/xlink" x="0px" y="0px"
	 width="1000px" height="1000px" viewBox="0 0 1000 1000" enable-background="new 0 0 1000 1000" xml:space="preserve">
<path fill="#060606" d="M315.538,804.106c-10.301,0-18.585-8.322-18.585-18.564V660.243c0-10.263,8.284-18.585,18.585-18.585
	c10.242,0,18.574,8.322,18.574,18.585v125.299C334.112,795.784,325.78,804.106,315.538,804.106L315.538,804.106z M385.879,763.505
	c-5.141,8.903-16.528,11.91-25.384,6.809l-108.509-62.679c-8.895-5.102-11.95-16.47-6.8-25.374
	c5.151-8.846,16.489-11.911,25.384-6.751l108.51,62.621C387.936,743.271,390.981,754.62,385.879,763.505L385.879,763.505z
	 M379.08,707.635l-108.51,62.679c-8.895,5.102-20.232,2.095-25.384-6.809c-5.15-8.885-2.095-20.233,6.8-25.374l108.509-62.621
	c8.895-5.16,20.243-2.095,25.384,6.79C390.981,691.165,387.936,702.533,379.08,707.635L379.08,707.635z M711.746,602.355
	c-13.386,0-36.685,0-66.714,0c0-1.222,0.155-2.444,0.155-3.646c0-17.983-3.608-40.253-10.165-55.831
	c34.607,0.136,61.806,0.214,76.724,0.214c62.678,0,113.484-40.428,113.484-103.097c0-62.718-50.807-107.462-113.484-107.462
	c-8.672,0-17.091,1.097-25.161,2.93c2.657-12.261,4.151-24.947,4.151-38.032c0-98.082-79.497-177.589-177.551-177.589
	c-92.854,0-168.908,71.263-176.804,162.06c-6.935-1.047-13.996-1.784-21.241-1.784c-76.753,0-139.034,57.043-139.034,133.796
	c0,76.801,62.281,128.654,139.034,128.654c15.306,0,40.301,0.098,75.278,0.175c-6.81,15.83-10.641,37.596-10.641,55.967
	c0,1.202,0.175,2.425,0.213,3.646c-30.049,0-50.941,0-64.851,0c-107.413,0-194.506-80.972-194.506-188.442
	c0-98.17,72.834-173.923,167.337-187.183c32.057-93.679,120.672-161.148,225.214-161.148c124.553,0,226.611,95.687,237.106,217.503
	c73.93,17.439,129.004,77.626,129.004,156.91C879.296,532.538,804.299,602.355,711.746,602.355L711.746,602.355z M511.14,658.109
	c-9.816,0-17.799-7.993-17.799-17.809V520.278c0-9.797,7.982-17.789,17.799-17.789c9.815,0,17.789,7.992,17.789,17.789v120.022
	C528.929,650.116,520.955,658.109,511.14,658.109L511.14,658.109z M578.513,619.194c-4.928,8.517-15.83,11.426-24.288,6.499
	l-103.931-60.002c-8.545-4.889-11.465-15.791-6.537-24.287c4.927-8.517,15.781-11.446,24.336-6.499l103.921,60.001
	C580.472,599.795,583.401,610.697,578.513,619.194L578.513,619.194z M571.975,565.691l-103.931,60.002
	c-8.506,4.927-19.36,2.018-24.287-6.499c-4.928-8.497-1.97-19.399,6.498-24.288l103.912-60.001
	c8.574-4.947,19.418-2.018,24.346,6.499C583.401,549.9,580.472,560.803,571.975,565.691L571.975,565.691z M712.852,804.106
	c-10.301,0-18.585-8.322-18.585-18.564V660.243c0-10.263,8.284-18.585,18.585-18.585c10.242,0,18.564,8.322,18.564,18.585v125.299
	C731.416,795.784,723.094,804.106,712.852,804.106L712.852,804.106z M783.154,763.505c-5.122,8.903-16.489,11.91-25.355,6.809
	L649.3,707.635c-8.885-5.102-11.95-16.47-6.809-25.374c5.102-8.846,16.489-11.911,25.393-6.751l108.441,62.621
	C785.249,743.271,788.295,754.62,783.154,763.505L783.154,763.505z M776.325,707.635l-108.479,62.679
	c-8.865,5.102-20.253,2.095-25.354-6.809c-5.142-8.885-2.076-20.233,6.809-25.374l108.461-62.621
	c8.904-5.16,20.271-2.095,25.394,6.79C788.295,691.165,785.249,702.533,776.325,707.635L776.325,707.635z M511.14,936.215
	c-9.816,0-17.799-7.973-17.799-17.789V798.403c0-9.815,7.982-17.789,17.799-17.789c9.815,0,17.789,7.974,17.789,17.789v120.022
	C528.929,928.242,520.955,936.215,511.14,936.215L511.14,936.215z M578.513,897.319c-4.928,8.497-15.83,11.427-24.288,6.499
	l-103.931-60.021c-8.545-4.889-11.465-15.791-6.537-24.288c4.927-8.497,15.781-11.426,24.336-6.499l103.921,60.002
	C580.472,877.901,583.401,888.804,578.513,897.319L578.513,897.319z M571.975,843.798l-103.931,60.021
	c-8.506,4.928-19.36,1.998-24.287-6.499c-4.928-8.516-1.97-19.418,6.498-24.307l103.912-60.002
	c8.574-4.927,19.418-1.998,24.346,6.499C583.401,828.007,580.472,838.909,571.975,843.798L571.975,843.798z"/>
</svg>
